X:1
T:Title
%%score 1 { 2 | 3 }
L:1/8
Q:1/4=97
M:3/4
K:G
V:1 treble nm="Grand Piano, Soprano"
V:2 bass nm="Choir Pad, Congo, LMD"
V:3 bass 
V:1
 DD D [DG]3 | [DG][DG] [DA] [GB]3 | [GB][Gd] [Ge][Gd] [GB][GA]- | [GA] [GA]2 [FA]3 | DD D [DG]3 | %5
w: By~James~Henry~Fillmore,~Sr.,~1877 * * *|||||
 [DG][DG] [DA] [GB]3 | [GB][Gd] [Ge][Gd] [GB]G- | G [FA]2 G3 | [Gd][Gd] [Gd] [Ge]3 | %9
w: ||||
 [Ge][Gd] [GB] [Gd]3 | [GB][GB] [GB] [Gc]3 | [Gc][GB] G [FA]3 | DD D [DG]3 | [DG][DG] [DA] [GB]3 | %14
w: |||||
 [GB][Gd] [Ge][Gd] [GB]G- | G [FA]2 G3- | G4 z2 |] %17
w: |||
V:2
 B,B, B, B,3 | B,B,[K:treble] C D3 | DB, CB, D^C- | C ^C2 D3 | DD C[K:bass] B,3 | B,B, C D3 | %6
 DB, CB, G,B,- | B, C2 B,3 | B,B, B, C3 | CB, G, B,3 | DD D E3 | ED B, D3 | DD C[K:bass] B,3 | %13
 B,B, C D3 | DB, CB, G,B,- | B, C2 B,3- | B,4 z2 |] %17
V:3
 G,G, G, G,3 | G,G, G, G,3 | G,G, G,G, G,E,- | E, A,2 D,3 | D,E, F, G,3 | G,G, G, G,3 | %6
 G,G, G,G, z D,- | D, D,2 [G,,G,]3 | G,G, G, C,3 | E,G, z G,3 | G,G, G, G,3 | G,G, G, D,3 | %12
 D,E, F, G,3 | G,G, G, G,3 | G,G, G,G, z D,- | D, D,2 [G,,G,]3- | [G,,G,]4 z2 |] %17

